synths/iBTC.svg

<svg width="480" height="480" viewBox="0 0 480 480" fill="none" xmlns="http://www.w3.org/2000/svg"><mask id="mask0-235360" maskUnits="userSpaceOnUse" x="0" y="0" width="480" height="480"><circle cx="240" cy="240" r="240" fill="url(#paint0_linear-485437)"/></mask><g mask="url(#mask0-235360)"><circle cx="240" cy="240" r="240" fill="#FF1E39"/><circle cx="240" cy="240" r="208" fill="#fff"/></g><circle cx="240" cy="240" r="184" fill="#0E052F"/><path d="M240 424c101.62 0 184-82.38 184-184S341.62 56 240 56 56 138.38 56 240s82.38 184 184 184z" fill="#F7931A"/><path d="M322.676 217.23c3.611-24.104-14.755-37.064-39.848-45.712l8.142-32.661-19.872-4.944-7.935 31.797c-5.221-1.311-10.58-2.53-15.927-3.749l7.992-32.004L235.356 125l-8.142 32.648c-4.324-.989-8.579-1.954-12.696-2.989l.023-.104-27.416-6.843-5.29 21.23s14.755 3.381 14.444 3.588c8.05 2.012 9.499 7.337 9.258 11.568l-9.269 37.203c.552.138 1.265.345 2.07.655l-2.105-.517-12.995 52.118c-.989 2.438-3.484 6.106-9.119 4.715.207.287-14.444-3.599-14.444-3.599l-9.867 22.746 25.875 6.452c4.807 1.208 9.522 2.473 14.156 3.657l-8.222 33.028 19.86 4.945 8.142-32.66a927.37 927.37 0 0015.847 4.106l-8.119 32.521 19.872 4.945 8.223-32.959c33.902 6.418 59.386 3.83 70.115-26.829 8.648-24.679-.425-38.927-18.262-48.208 12.995-2.99 22.77-11.534 25.381-29.187zm-45.425 63.687c-6.13 24.691-47.702 11.339-61.18 7.993l10.925-43.758c13.478 3.369 56.683 10.028 50.255 35.765zm6.152-64.043c-5.6 22.459-40.192 11.04-51.405 8.245l9.89-39.675c11.213 2.794 47.357 8.004 41.515 31.43z" fill="#fff"/><defs><linearGradient id="paint0_linear-485437" x1="240" y1="0" x2="240" y2="701.818" gradientUnits="userSpaceOnUse"><stop stop-color="#08021E"/><stop offset="1" stop-color="#1F0777"/></linearGradient></defs></svg>

<svg width="480" height="480" viewBox="0 0 480 480" fill="none" xmlns="http://www.w3.org/2000/svg">
<mask id="mask0-235360" mask-type="alpha" maskUnits="userSpaceOnUse" x="0" y="0" width="480" height="480">
<circle cx="240" cy="240" r="240" fill="url(#paint0_linear-485437)"/>
</mask>
<g mask="url(#mask0-235360)">
<circle cx="240" cy="240" r="240" fill="#FF1E39"/>
<circle cx="240" cy="240" r="208" fill="white"/>
</g>
<circle cx="240" cy="240" r="184" fill="#0E052F"/>
<path d="M240 424C341.62 424 424 341.62 424 240C424 138.38 341.62 56 240 56C138.38 56 56 138.38 56 240C56 341.62 138.38 424 240 424Z" fill="#F7931A"/>
<path d="M322.676 217.23C326.287 193.126 307.921 180.166 282.828 171.518L290.97 138.857L271.098 133.913L263.163 165.71C257.942 164.399 252.583 163.18 247.236 161.961L255.228 129.957L235.356 125L227.214 157.648C222.89 156.659 218.635 155.694 214.518 154.659L214.541 154.555L187.125 147.712L181.835 168.942C181.835 168.942 196.59 172.323 196.279 172.53C204.329 174.542 205.778 179.867 205.537 184.098L196.268 221.301C196.82 221.439 197.533 221.646 198.338 221.956L196.233 221.439L183.238 273.557C182.249 275.995 179.754 279.663 174.119 278.272C174.326 278.559 159.675 274.673 159.675 274.673L149.808 297.419L175.683 303.871C180.49 305.079 185.205 306.344 189.839 307.528L181.617 340.556L201.477 345.501L209.619 312.841C215.047 314.301 220.314 315.658 225.466 316.947L217.347 349.468L237.219 354.413L245.442 321.454C279.344 327.872 304.828 325.284 315.557 294.625C324.205 269.946 315.132 255.698 297.295 246.417C310.29 243.427 320.065 234.883 322.676 217.23ZM277.251 280.917C271.121 305.608 229.549 292.256 216.071 288.91L226.996 245.152C240.474 248.521 283.679 255.18 277.251 280.917ZM283.403 216.874C277.803 239.333 243.211 227.914 231.998 225.119L241.888 185.444C253.101 188.238 289.245 193.448 283.403 216.874Z" fill="white"/>
<defs>
<linearGradient id="paint0_linear-485437" x1="240" y1="0" x2="240" y2="701.818" gradientUnits="userSpaceOnUse">
<stop stop-color="#08021E"/>
<stop offset="1" stop-color="#1F0777"/>
</linearGradient>
</defs>
</svg>
